X: 1
M: 4/4
T: Viva La Vida
C: Coldplay
L: 1/4
Q: 1/4 = 140
V:V clef=treble
V:DF clef=perc stem=down %foot
V:DL clef=perc stem=down %left
V:DR clef=perc %right
V:VI clef=treble
K: G
%%score V (DR DL DF) VI
%%measurenb 0
%
[V:V] |: "C"z4|"D"z4|"G"z4|[1 "Em"z4 :|2 "Em"zz/B/BB||
w: I used to
[V:VI] |:"^Violin"CCCC/(D/|D/)DD/DD|GGGG/(E/|E/)EE/EE:|xxxx|
[V:DF][I:voicemap drummap][I:MIDI channel 10] |: "^Drums"z4|z4|z4|[1 z4 :|2 zzFF||
[V:DR][I:voicemap drummap][I:MIDI channel 10] |: x4|x4|x4|[1 x4 :|2 x4||
[V:DL][I:voicemap drummap][I:MIDI channel 10] |: x4|x4|x4|[1 x4 :|2 x4||
%
[V:V]  "C"B3    c/(A/|"D"A2)  z/AA/|"G"A A/A/ B D/(E/|"Em"E/)B/B/B/ B/B/ B|
w: rule the worl-d seas would rise when I gave the word. Now in the morn-ing I_
[V:VI] CCCC/(D/|D/)DD/DD|GGGG/E/|D/B/B/B/ B/B/B/B/|
[V:DF] F F F F    | F F F F | F F F F | F F F F | 
[V:DR] x x x x    | x x x x | x x x x | x x x x |
[V:DL] x x x x    | x x x x | x x x x | x x x x |
%
[V:V]  "C"(B2B/)((c/ c//)B//A/)|"D"A2z/AG/|"G"A A/G/ A B/G/|"Em"F/ D3/2 D2| 
w: sleep_ a----lone, sweep the streets that I used to own___
[V:VI] B3c/(A/              |(A2) A/)A/A/A/|AAAB/(G/|G/)FE2z|
[V:DF] F F F F              | F F F F | F F F F | F F F F | 
[V:DR] x x x x              | x x x x | x x x x | x x x x |
[V:DL] x x x x              | x x x x | x x x x | x x x x |
% Verse
[V:V]  "C"z4|"D"z4|"G"z4|
w: 
[V:VI] CCC/(D|D/)DD/DD|GGGG/(E/|
[V:DF] F F F F              | F F F F | F F F F |
[V:DR] x x x x              | x x x x | x x x x |
[V:DL] g g g g              | g g g g | g g g g | 
%
[V:V]  "Em"zz/B/BB |: "C"B3  c/(A/|"D"A2)  z/A/A/G/|
w: I used to role the dice_ feel _ the 
w: * * * wild_ wind,_ blew down the
[V:VI] D/B/B/B/ B/B/B/B/|B3c/(A/              |(A2) A/)A/A/A/
[V:DF] xxFF |: Fx/F/F/xx/|Fx/F/F/xx/|
[V:DL] x x x x |: xcxc|xcxc|
[V:DR] x x/a/ g g |: g/g/g/g/ g/g/g/g/|
%
[V:V] "G"A A/A/ A/A/B/(G/|"Em"F/) E/ B/B/ B/B/B/B/|
w: fear in my en-e-my's eyes____ lis-ten as the
w: doors_ to let_ me in.__ Shat-ered win-dows and the
[V:DF] Fx/F/F/xx/|Fx/F/F/xx/|Fx/F/F/xx/|Fx/F/F/xx/|
[V:DL] xcxc|xcxc|xcxc|xcxc|
[V:DR] g/g/g/g/ g/g/g/g/|g/g/g/g/ g/g/g/g/|g/g/g/g/ g/g/g/g/|g/g/g/g/ g/g/g/g/|
%
[V:V]  "C"(B2B/) e(d/|"D"d2)zB/B/|"G"d/G/G/(G/ G/) e d/|"Em"G/G/ z/e/ e/e/e/e/| 
w: crowd would sing__ "Now the old king is dead!_ long live the king One minute I__
w: sound_ of drums;_ peo-ple could-n't be-lieve_ what I'd be-come Rev-o-lu-tion-_
[V:DF] Fx/F/F/xx/|Fx/F/F/xx/|Fx/F/F/xx/|Fx/F/F/xx/|
[V:DL] xcxc|xcxc|xcxc|xcxc|
[V:DR] g/g/g/g/ g/g/g/g/|g/g/g/g/ g/g/g/g/|g/g/g/g/ g/g/g/g/|g/g/g/g/ g/g/g/g/|
%
[V:V]  "C"e3    c/(d/|"D"d) z z/ d d/|"G"d d/B/ (d/c/)(c/B/)|"Em"B/D/B/B/ B/B/B/B/|
w: held the key_ next the walls_ were_ closed on_ me and  I dis-cov-ered that my
w: ar-ies wait_ for my head on a sil--ver_ plate._ Just a pup-pet on a
[V:DF] Fx/F/F/xx/|Fx/F/F/xx/|Fx/F/F/xx/|Fx/F/F/xx/|
[V:DL] xcxc|xcxc|xcxc|xcxc|
[V:DR] g/g/g/g/ g/g/g/g/|g/g/g/g/ g/g/g/g/|g/g/g/g/ g/g/g/g/|g/g/g/g/ g/g/g/g/|
%
[V:V]  "C"(B2B/) c(A/|"D"A)zz/F/G|"G"A/A/F/(G/ G/)D/A/A/|"Em"D/G3/2 zz/G/| 
w: cas-tles stand__ up-on pil-lars of salt_ and pil-lars of sand. I
w: lone-ly string;__ oh,_ who would ev-er wan-na be king!__ I
[V:DF] Fx/F/F/xx/|Fx/F/F/xx/|Fx/F/F/xx/|Fx/F/F/xx/|
[V:DL] xcxc|xcxc|xcxc|xcxc|
[V:DR] g/g/g/g/ g/g/g/g/|g/g/g/g/ g/g/g/g/|g/g/g/g/ g/g/g/g/|g/g/g/g/ g/g/g/g/|
% Chorus
[V:V]  "C" e e e/d/e/(d/|"D"d) A/(B/ B/)c/ z|"G" d d d/B/d/(B/|"Em"B) E/(F/ F/)G/ z|
w: hear Je-ru-sa-lem bells_ are ring-ing;_ Ro-man Cath-o-lic choirs_ are sing-ing._
[V:DF] Fx/F/F/xx/|Fx/F/F/xx/|Fx/F/F/xx/|Fx/F/F/xx/|
[V:DL] xcxc|xcxc|xcxc|xcxc|
[V:DR] g/g/g/g/ g/g/g/g/|g/g/g/g/ g/g/g/g/|g/g/g/g/ g/g/g/g/|g/g/g/g/ g/g/g/g/|
%
[V:V] "C"  e e e/d/e/(d/|"D"d) A/(B/ B/)c c/|"G" d/B/ d d/B/d/(B/|"Em"B/) E (F/ F/)G/ z|
w: Be my mir-ror, my sword_ and shield,__ my mis-sion-ar-ies in a for-eign_ field__
[V:DF] Fx/F/F/xx/|Fx/F/F/xx/|Fx/F/F/xx/|Fx/F/F/xx/|
[V:DL] xcxc|xcxc|xcxc|xcxc|
[V:DR] g/g/g/g/ g/g/g/g/|g/g/g/g/ g/g/g/g/|g/g/g/g/ g/g/g/g/|g/g/g/g/ g/g/g/g/|
%
[V:V] "C"  e e e/d/e/(f/|"D"f/) f ((f/ f3/2) g/)|[1 "G/B" g d d/c/c/c/|"Em"c/B/ z B/B/B/B/|
w: For some rea-son I can't_ ex-plain,__ once you go,_ there was nev-er, ever an hon--
[V:DF] Fx/F/F/xx/|Fx/F/F/xx/|Fx/F/F/xx/|Fx/F/F/xx/|
[V:DL] xcxc|xcxc|xcxc|xcxc|
[V:DR] g/g/g/g/ g/g/g/g/|g/g/g/g/ g/g/g/g/|g/g/g/g/ g/g/g/g/|g/g/g/g/ g/g/g/g/|
%
[V:V] [1 "C" (B2 B/) c (A/|"D"A2) z/ D/ A/G/|"G"F/ F (B/B) F/(G/|"Em"(G4)|
w: - est word__ And that was when I ruled the world.__
[V:DF] Fx/F/F/xx/|Fx/F/F/xx/|Fx/F/F/xx/|Fx/F/F/xx/|
[V:DL] xcxc|xcxc|xcxc|xcxc|
[V:DR] g/g/g/g/ g/g/g/g/|g/g/g/g/ g/g/g/g/|g/g/g/g/ g/g/g/g/|g/g/g/g/ g/g/g/g/|
% Pickup for verse 2
[V:V] [1 "C" G4)"D"|z z/ ((B/B) c/)B/|"G"B//B// A3/2 A2"Em"|z/ B/ B/B/ B/B/ b:|
w: _ Mm__ hmm____ It wa a wic-ked and
[V:DF] Fx/F/F/xx/|Fx/F/F/xx/|Fx/F/F/xx/|Fx/F/F/xx/|
[V:DL] xcxc|xcxc|xcxc|xcxc|
[V:DR] g/g/g/g/ g/g/g/g/|g/g/g/g/ g/g/g/g/|g/g/g/g/ g/g/g/g/|g/g/g/g/ g/g/g/g/|
% Out of second chorus
[V:V] [2 "G/B" g d d/c/c/c/"Em"|c/B/ z B/B/B/B/|"C" (B2 B/) c (A/"D"|A2) z/ D/ A/G/|
w: I know Saint Peter won't call my name.  Nev-er an - hon-est word_ but that was_
[V:DF] Fx/F/F/xx/|Fx/F/F/xx/|Fx/F/F/xx/|Fx/F/F/xx/|
[V:DL] xcxc|xcxc|xcxc|xcxc|
[V:DR] g/g/g/g/ g/g/g/g/|g/g/g/g/ g/g/g/g/|g/g/g/g/ g/g/g/g/|g/g/g/g/ g/g/g/g/|
%
[V:V] [2 "G"F/ F (B/(B2)"Em"|B2) z B/B//A//|"C"(G4"Em"|G3/2) A/(G2||
w: when I ruled__ the world._____
[V:DF] Fx/F/F/xx/|Fx/F/F/xx/|Fx/F/F/xx/|Fx/F/F/xx/||
[V:DL] xcxc|xcxc|xcxc|xcxc||
[V:DR] g/g/g/g/ g/g/g/g/|g/g/g/g/ g/g/g/g/|g/g/g/g/ g/g/g/g/|g/g/g/g/ g/g/g/g/||
% Outtro
[V:V] "C"G2) z z/ (G/"Em"|G/) A (B/B) d/(d/|"C"d3) z"Em"|z/d (d/d) d/(g/|
w: _ Yeah , I rul-ed the world._ I ruled the world_
[V:DF] Fx/F/F/xx/|Fx/F/F/xx/|Fx/F/F/xx/|Fx/F/F/xx/|
[V:DL] xcxc|xcxc|xcxc|xcxc|
[V:DR] g/g/g/g/ g/g/g/g/|g/g/g/g/ g/g/g/g/|g/g/g/g/ g/g/g/g/|g/g/g/g/ g/g/g/g/|
%
[V:V] "D"g4)|z/B/ d/(g/g) f/(e/|"C"e2) e3/2 d/"D"|z/ B/ e/(g/ g) f/[gd]//g//|"G"d2d3/2B/"Em"|
w: _ (Whoa,________ Whoa._________
[V:DF] Fx/F/F/xx/|Fx/F/F/xx/|Fx/F/F/xx/|Fx/F/F/xx/|Fx/F/F/xx/|
[V:DL] xcxc|xcxc|xcxc|xcxc|xcxc|
[V:DR] g/g/g/g/ g/g/g/g/|g/g/g/g/ g/g/g/g/|g/g/g/g/ g/g/g/g/|g/g/g/g/ g/g/g/g/|g/g/g/g/ g/g/g/g/|
%
[V:V] z/B/ d/(g/ g) f/([e/g/]|"C"[e2g2]) e3/2 d/"D"|z/B/ d/(g/ g)e/(d/|"G"(d2) d3/2) B/"Em"|gzz/g3/2|
w: Whoa,________ Whoa,_________ Oh,
[V:DF] Fx/F/F/xx/|Fx/F/F/xx/|Fx/F/F/xx/|Fx/F/F/xx/|Fx/F/F/xx/|
[V:DL] xcxc|xcxc|xcxc|xcxc|xcxc|
[V:DR] g/g/g/g/ g/g/g/g/|g/g/g/g/ g/g/g/g/|g/g/g/g/ g/g/g/g/|g/g/g/g/ g/g/g/g/|g/g/g/g/ g/g/g/g/|
% Chorus
[V:V]  "C" e e e/d/e/(d/|"D"d) A/(B/ B/)c/ z|"G" d d d/B/d/(B/|"Em"B) d/(c/ c/)B/ z|
w: hear Je-ru-sa-lem bells_ are ring-ing;_ Ro-man Cath-o-lic choirs_ are sing-ing._
[V:DF] Fx/F/F/xx/|Fx/F/F/xx/|Fx/F/F/xx/|Fx/F/F/xx/|
[V:DL] xcxc|xcxc|xcxc|xcxc|
[V:DR] g/g/g/g/ g/g/g/g/|g/g/g/g/ g/g/g/g/|g/g/g/g/ g/g/g/g/|g/g/g/g/ g/g/g/g/|
%
[V:V] "C"  e e e/d/e/(f/|"D"f/) d (d/d) z/f/|"G" g/d/ d d/c/B/(c/|"Em"c/) B (B/ B) z|
w: Be my mir-ror, my sword_ and shield,_ my mis-sion-ar-ies in a for-eign_ field_
[V:DF] Fx/F/F/xx/|Fx/F/F/xx/|Fx/F/F/xx/|Fx/F/F/xx/|
[V:DL] xcxc|xcxc|xcxc|xcxc|
[V:DR] g/g/g/g/ g/g/g/g/|g/g/g/g/ g/g/g/g/|g/g/g/g/ g/g/g/g/|g/g/g/g/ g/g/g/g/|
%
[V:V] "C"  e e e/d/e/(f/|"D"f/) d (d/ d) z/f/|"G/B" g d d/c/c/c/"Em"|B/B3/2 z/ B/B/B/|
w: For some rea-son I can't_ ex-plain,_ I know Saint Pet-er won't call my name. Nev-er an
[V:DF] Fx/F/F/xx/|Fx/F/F/xx/|Fx/F/F/xx/|Fx/F/F/xx/|
[V:DL] xcxc|xcxc|xcxc|xcxc|
[V:DR] g/g/g/g/ g/g/g/g/|g/g/g/g/ g/g/g/g/|g/g/g/g/ g/g/g/g/|g/g/g/g/ g/g/g/g/|
%
[V:V] "C" (B2 B/) c (A/"D"|A2) z/ D/ A/G/| "D"F/F (B/B) F/G/"Em"|G4|]
w: an  hon-est word_ but that was when I rul-ed the world._
[V:DF] Fx/F/F/xx/|Fx/F/F/xx/|Fx/F/F/xx/|Fx/F/F/xx/|]
[V:DL] xcxc|xcxc|xcxc|xcxc|]
[V:DR] g/g/g/g/ g/g/g/g/|g/g/g/g/ g/g/g/g/|g/g/g/g/ g/g/g/g/|g/g/g/g/ g/g/g/g/|]
%
